img/line-left-brief.svg

<svg width="236" height="220" viewBox="0 0 236 220" fill="none" xmlns="http://www.w3.org/2000/svg">
<path d="M-0.25639 0C8.66104 5.93792 27.7303 22.2969 27.4331 39.6356C27.0615 61.309 22.9744 74.0756 46.0111 77.4899C69.0478 80.9042 92.456 126.626 72.3918 138.65C52.3276 150.675 29.6625 157.058 24.2749 185.857C19.9648 208.896 5.93627 218.219 -0.442169 220" stroke="url(#paint0_linear_675_445)"/>
<path d="M-0.628049 6.23474C7.83613 11.8639 20.7265 29.4584 20.4443 45.8956C20.0917 66.4422 16.2122 78.545 38.078 81.7818C59.9438 85.0186 82.1623 128.363 63.1179 139.763C44.0735 151.162 22.5604 157.213 17.4466 184.515C13.3556 206.356 5.42619 215.194 -0.628049 216.883" stroke="url(#paint1_linear_675_445)"/>
<path d="M-0.628031 17.6653C6.90553 22.6797 15.0428 38.6511 14.7917 53.2929C14.4778 71.5951 14.3607 82.077 33.8224 84.9602C53.2841 87.8435 73.0597 126.454 56.1092 136.608C39.1587 146.762 20.0109 152.152 15.4594 176.471C11.8181 195.927 4.94634 208.847 -0.442251 210.351" stroke="url(#paint2_linear_675_445)"/>
<path d="M-0.627569 27.9083C5.88675 32.2349 9.80746 48.3783 9.59032 61.0122C9.31889 76.8046 12.3333 86.6043 29.1619 89.0921C45.9906 91.58 63.0907 124.895 48.4335 133.657C33.7762 142.418 15.3839 147.504 11.4481 168.489C8.29953 185.276 4.03198 201.927 -0.627569 203.225" stroke="url(#paint3_linear_675_445)"/>
<path d="M-0.256521 39.6357C5.23855 43.2773 5.12848 57.3558 4.94531 67.9893C4.71635 81.2811 10.3049 91.1161 24.5005 93.21C38.6961 95.3039 53.1206 123.344 40.7567 130.718C28.3928 138.093 10.6804 144.592 7.36045 162.254C4.7045 176.383 3.11664 190.851 -0.81386 191.943" stroke="url(#paint4_linear_675_445)"/>
<g filter="url(#filter0_f_675_445)">
<path d="M0.294102 14.6963C5.72297 19.4452 5.61423 37.805 5.43326 51.672C5.20706 69.0057 10.7283 81.8314 24.7528 84.5621C38.7774 87.2928 53.0282 123.86 40.8132 133.477C28.5983 143.093 11.0992 151.569 7.8193 174.602C5.19535 193.028 3.62662 211.895 -0.256523 213.32" stroke="url(#paint5_linear_675_445)" stroke-width="80"/>
</g>
<path d="M-0.441977 73.0366C-0.644272 84.7738 3.62264 94.0019 16.1649 95.8509C28.7072 97.6999 41.4518 122.461 30.5279 128.972C19.604 135.484 2.4913 146.361 -0.441977 161.957" stroke="url(#paint6_linear_675_445)"/>
<path d="M-0.441939 90.4048C0.85852 94.8582 5.87458 97.9757 9.46266 98.9594C20.5671 102.004 32.7381 123.481 22.6831 129.482C12.6281 135.483 6.80348 137.017 -0.441936 150.823" stroke="url(#paint7_linear_675_445)"/>
<path d="M-0.999768 97.8272C-0.0287024 101.176 3.71684 103.519 6.3961 104.259C14.6879 106.548 23.7761 122.695 16.268 127.207C8.75978 131.719 4.41046 132.873 -0.999766 143.252" stroke="url(#paint8_linear_675_445)"/>
<path d="M-0.256474 104.656C0.426869 107.019 3.06262 108.674 4.94802 109.196C10.783 110.812 17.1784 122.21 11.8949 125.395C6.61136 128.579 3.55072 129.394 -0.256472 136.721" stroke="url(#paint9_linear_675_445)"/>
<path d="M-0.999441 110C-0.549873 111.554 1.18418 112.641 2.42457 112.985C6.26336 114.047 10.4709 121.54 6.99488 123.634C3.51887 125.727 1.50529 126.263 -0.99944 131.08" stroke="url(#paint10_linear_675_445)"/>
<defs>
<filter id="filter0_f_675_445" x="-185.844" y="-165.41" width="421.29" height="566.282" filterUnits="userSpaceOnUse" color-interpolation-filters="sRGB">
<feFlood flood-opacity="0" result="BackgroundImageFix"/>
<feBlend mode="normal" in="SourceGraphic" in2="BackgroundImageFix" result="shape"/>
<feGaussianBlur stdDeviation="75" result="effect1_foregroundBlur_675_445"/>
</filter>
<linearGradient id="paint0_linear_675_445" x1="80.0005" y1="110" x2="-0.442169" y2="110" gradientUnits="userSpaceOnUse">
<stop stop-color="#E3255E"/>
<stop offset="0.445" stop-color="#FF2323"/>
<stop offset="1" stop-color="#E2CC00"/>
</linearGradient>
<linearGradient id="paint1_linear_675_445" x1="70.3398" y1="111.559" x2="-0.628052" y2="111.559" gradientUnits="userSpaceOnUse">
<stop stop-color="#E3255E"/>
<stop offset="0.445" stop-color="#FF2323"/>
<stop offset="1" stop-color="#E2CC00"/>
</linearGradient>
<linearGradient id="paint2_linear_675_445" x1="62.5371" y1="114.008" x2="-0.628029" y2="114.008" gradientUnits="userSpaceOnUse">
<stop stop-color="#E3255E"/>
<stop offset="0.445" stop-color="#FF2323"/>
<stop offset="1" stop-color="#E2CC00"/>
</linearGradient>
<linearGradient id="paint3_linear_675_445" x1="53.9917" y1="115.567" x2="-0.627567" y2="115.567" gradientUnits="userSpaceOnUse">
<stop stop-color="#E3255E"/>
<stop offset="0.445" stop-color="#FF2323"/>
<stop offset="1" stop-color="#E2CC00"/>
</linearGradient>
<linearGradient id="paint4_linear_675_445" x1="45.4453" y1="115.79" x2="-0.813862" y2="115.79" gradientUnits="userSpaceOnUse">
<stop stop-color="#E3255E"/>
<stop offset="0.445" stop-color="#FF2323"/>
<stop offset="1" stop-color="#E2CC00"/>
</linearGradient>
<linearGradient id="paint5_linear_675_445" x1="45.4453" y1="114.008" x2="-0.256523" y2="114.008" gradientUnits="userSpaceOnUse">
<stop stop-color="#E3255E"/>
<stop offset="0.445" stop-color="#FF2323"/>
<stop offset="1" stop-color="#E2CC00"/>
</linearGradient>
<linearGradient id="paint6_linear_675_445" x1="34.6704" y1="117.497" x2="-0.448799" y2="117.497" gradientUnits="userSpaceOnUse">
<stop stop-color="#E3255E"/>
<stop offset="0.445" stop-color="#FF2323"/>
<stop offset="1" stop-color="#E2CC00"/>
</linearGradient>
<linearGradient id="paint7_linear_675_445" x1="26.4282" y1="120.614" x2="-0.441938" y2="120.614" gradientUnits="userSpaceOnUse">
<stop stop-color="#E3255E"/>
<stop offset="0.445" stop-color="#FF2323"/>
<stop offset="1" stop-color="#E2CC00"/>
</linearGradient>
<linearGradient id="paint8_linear_675_445" x1="19.0645" y1="120.54" x2="-0.999767" y2="120.54" gradientUnits="userSpaceOnUse">
<stop stop-color="#E3255E"/>
<stop offset="0.445" stop-color="#FF2323"/>
<stop offset="1" stop-color="#E2CC00"/>
</linearGradient>
<linearGradient id="paint9_linear_675_445" x1="13.8628" y1="120.688" x2="-0.256474" y2="120.688" gradientUnits="userSpaceOnUse">
<stop stop-color="#E3255E"/>
<stop offset="0.445" stop-color="#FF2323"/>
<stop offset="1" stop-color="#E2CC00"/>
</linearGradient>
<linearGradient id="paint10_linear_675_445" x1="8.28955" y1="120.54" x2="-0.99944" y2="120.54" gradientUnits="userSpaceOnUse">
<stop stop-color="#E3255E"/>
<stop offset="0.445" stop-color="#FF2323"/>
<stop offset="1" stop-color="#E2CC00"/>
</linearGradient>
</defs>
</svg>

<svg width="236" height="220" fill="none" xmlns="http://www.w3.org/2000/svg"><path d="M-.256 0C8.66 5.938 27.73 22.297 27.434 39.636c-.373 21.673-4.46 34.44 18.577 37.854 23.037 3.414 46.445 49.136 26.38 61.16-20.063 12.025-42.729 18.408-48.116 47.207C19.965 208.896 5.936 218.219-.442 220" stroke="url(#a)"/><path d="M-.628 6.235c8.464 5.629 21.355 23.223 21.072 39.66-.352 20.547-4.232 32.65 17.634 35.887 21.866 3.237 44.084 46.581 25.04 57.981-19.044 11.399-40.558 17.45-45.671 44.752-4.091 21.841-12.02 30.679-18.075 32.368" stroke="url(#b)"/><path d="M-.628 17.665c7.534 5.015 15.67 20.986 15.42 35.628-.314 18.302-.431 28.784 19.03 31.667 19.462 2.884 39.238 41.494 22.287 51.648-16.95 10.154-36.098 15.544-40.65 39.863-3.64 19.456-10.513 32.376-15.901 33.88" stroke="url(#c)"/><path d="M-.628 27.908C5.887 32.235 9.807 48.378 9.59 61.012c-.271 15.793 2.743 25.592 19.572 28.08 16.829 2.488 33.929 35.803 19.272 44.565-14.658 8.761-33.05 13.847-36.986 34.832C8.3 185.276 4.032 201.927-.628 203.225" stroke="url(#d)"/><path d="M-.257 39.636c5.496 3.641 5.385 17.72 5.202 28.353-.229 13.292 5.36 23.127 19.555 25.221 14.196 2.094 28.62 30.134 16.257 37.508-12.364 7.375-30.077 13.874-33.397 31.536-2.655 14.129-4.243 28.597-8.174 29.689" stroke="url(#e)"/><g filter="url(#f)"><path d="M.294 14.696c5.429 4.75 5.32 23.109 5.14 36.976-.227 17.334 5.294 30.16 19.319 32.89 14.024 2.73 28.275 39.298 16.06 48.915-12.215 9.616-29.714 18.092-32.994 41.125-2.624 18.426-4.192 37.293-8.076 38.718" stroke="url(#g)" stroke-width="80"/></g><path d="M-.442 73.037C-.644 84.774 3.623 94.002 16.165 95.85c12.542 1.849 25.287 26.61 14.363 33.121-10.924 6.512-28.037 17.389-30.97 32.985" stroke="url(#h)"/><path d="M-.442 90.405c1.3 4.453 6.317 7.57 9.905 8.554 11.104 3.045 23.275 24.522 13.22 30.523-10.055 6.001-15.88 7.535-23.125 21.341" stroke="url(#i)"/><path d="M-1 97.827c.971 3.349 4.717 5.692 7.396 6.432 8.292 2.289 17.38 18.436 9.872 22.948C8.76 131.719 4.41 132.873-1 143.252" stroke="url(#j)"/><path d="M-.256 104.656c.683 2.363 3.319 4.018 5.204 4.54 5.835 1.616 12.23 13.014 6.947 16.199-5.284 3.184-8.344 3.999-12.151 11.326" stroke="url(#k)"/><path d="M-1 110c.45 1.554 2.184 2.641 3.425 2.985 3.838 1.062 8.046 8.555 4.57 10.649-3.476 2.093-5.49 2.629-7.994 7.446" stroke="url(#l)"/><defs><linearGradient id="a" x1="80.001" y1="110" x2="-.442" y2="110" gradientUnits="userSpaceOnUse"><stop stop-color="#E3255E"/><stop offset=".445" stop-color="#FF2323"/><stop offset="1" stop-color="#E2CC00"/></linearGradient><linearGradient id="b" x1="70.34" y1="111.559" x2="-.628" y2="111.559" gradientUnits="userSpaceOnUse"><stop stop-color="#E3255E"/><stop offset=".445" stop-color="#FF2323"/><stop offset="1" stop-color="#E2CC00"/></linearGradient><linearGradient id="c" x1="62.537" y1="114.008" x2="-.628" y2="114.008" gradientUnits="userSpaceOnUse"><stop stop-color="#E3255E"/><stop offset=".445" stop-color="#FF2323"/><stop offset="1" stop-color="#E2CC00"/></linearGradient><linearGradient id="d" x1="53.992" y1="115.567" x2="-.628" y2="115.567" gradientUnits="userSpaceOnUse"><stop stop-color="#E3255E"/><stop offset=".445" stop-color="#FF2323"/><stop offset="1" stop-color="#E2CC00"/></linearGradient><linearGradient id="e" x1="45.445" y1="115.79" x2="-.814" y2="115.79" gradientUnits="userSpaceOnUse"><stop stop-color="#E3255E"/><stop offset=".445" stop-color="#FF2323"/><stop offset="1" stop-color="#E2CC00"/></linearGradient><linearGradient id="g" x1="45.445" y1="114.008" x2="-.257" y2="114.008" gradientUnits="userSpaceOnUse"><stop stop-color="#E3255E"/><stop offset=".445" stop-color="#FF2323"/><stop offset="1" stop-color="#E2CC00"/></linearGradient><linearGradient id="h" x1="34.67" y1="117.497" x2="-.449" y2="117.497" gradientUnits="userSpaceOnUse"><stop stop-color="#E3255E"/><stop offset=".445" stop-color="#FF2323"/><stop offset="1" stop-color="#E2CC00"/></linearGradient><linearGradient id="i" x1="26.428" y1="120.614" x2="-.442" y2="120.614" gradientUnits="userSpaceOnUse"><stop stop-color="#E3255E"/><stop offset=".445" stop-color="#FF2323"/><stop offset="1" stop-color="#E2CC00"/></linearGradient><linearGradient id="j" x1="19.064" y1="120.54" x2="-1" y2="120.54" gradientUnits="userSpaceOnUse"><stop stop-color="#E3255E"/><stop offset=".445" stop-color="#FF2323"/><stop offset="1" stop-color="#E2CC00"/></linearGradient><linearGradient id="k" x1="13.863" y1="120.688" x2="-.256" y2="120.688" gradientUnits="userSpaceOnUse"><stop stop-color="#E3255E"/><stop offset=".445" stop-color="#FF2323"/><stop offset="1" stop-color="#E2CC00"/></linearGradient><linearGradient id="l" x1="8.29" y1="120.54" x2="-.999" y2="120.54" gradientUnits="userSpaceOnUse"><stop stop-color="#E3255E"/><stop offset=".445" stop-color="#FF2323"/><stop offset="1" stop-color="#E2CC00"/></linearGradient><filter id="f" x="-185.844" y="-165.41" width="421.29" height="566.282" filterUnits="userSpaceOnUse" color-interpolation-filters="sRGB"><feFlood flood-opacity="0" result="BackgroundImageFix"/><feBlend in="SourceGraphic" in2="BackgroundImageFix" result="shape"/><feGaussianBlur stdDeviation="75" result="effect1_foregroundBlur_675_445"/></filter></defs></svg>
